!!!!SEGMENT:31Dojoji_c.krn
!!!OTL: 道成寺
!!!OPR:Eiga Banso Kyokusyu,jidai-geki,zenpen
!!!YOY:1929
!!!ONB:Dairantou,War
**kern
*clefG2
*k[]
*C:
*M2/4
=1
!LO:TX:a:B:t=Allegro
8ddL
16eeL
16eeJJ
(8a'L
8b'J)
=2
16eLL
16cc
16cc
16ccJJ
8bL
8ccJ
=3
8aL
8f
8a
8bJ
=4
16eLL
16cc
16cc
16ccJJ
8bL
8ccJ
=5
8f#XL
8f#J
4ra
=6
8f#XL
8f#J
4ra
=7
8f#X
8ra
8f#
8ra
=8
8f#X
8ra
8f#L
8f#J
=9
8r
16gLL
16gJJ
8gL
8gJ
=10
8gL
8b
8g
8f#XJ
=11
8eL
8f#X
8g
8f#J
=12
8eL
16f#XL
16eJJ
8cL
8BJ
=13
8dL
8eJ
16BLL
16fn
16f
16eJJ
=14
8dL
8eJ
4r
=15
16aLL
16aJ
8aJ
16bLL
16bJ
8bJ
=16
8aL
16BL
16fJJ
(8fL
8eJ)
=17
16aLL
16aJ
8aJ
16bLL
16bJ
8bJ
=18
8aL
16BL
16fJJ
(8fL
8eJ)
=19
8fL
8fJ
4r
=20
4.f
8f
=21
4f
4f
=22
8r
8f
4f
=23
4f
4r
=24
8f
8r
8f
8r
=25
8f
8r
8f
8r
=26
8fL
8f
8f
8fJ
=27
8fL
8f
8f
8fJ
=28
8eL
8e
8f#X
8f#J
=29
8gL
8f#X
8e
8cJ
=30
8eL
8f#XJ
16BLL
16g
16g
16f#JJ
=31
8eL
8cJ
4r
=32
8BL
8BJ
8BL
8dJ
=33
16eLL
16e
16f
16eJJ
8dL
8eJ
=34
16BLL
16f
16f
16eJJ
16BLL
16f
16f
16eJJ
=35
16eLL
16a
16a
16aJJ
8b
8r
=36
8dL
8eJ
16BLL
16f
16f
16eJJ
=37
16BLL
16f
16f
16eJJ
8e
8r
=38
16bLL
16bJ
8bJ
16aLL
16aJ
8aJ
=39
8bL
16bL
16bJJ
8bL
8ddJ
=40
8eeL
16eeL
16eeJJ
8eeL
8ffJ
=41
8eeL
16BL
16ccJJ
8cc
8r
=42
8eeL
16eeL
16eeJJ
16BLL
16ccJ
8ccJ
=43
16eeLL
16ee
16B
16ccJJ
8cc
8r
=44
8eeL
16eeL
16eeJJ
16BLL
16ccJ
8ccJ
=45
16eeLL
16ee
16B
16ccJJ
8cc
8r
=46
16ffLL
16ff
16ff
16ffJJ
16eeLL
16ee
16ee
16eeJJ
=47
16ddLL
16dd
16dd
16ddJJ
16eeLL
16ee
16ee
16eeJJ
=48
16ffLL
16ff
16ff
16ffJJ
16eeLL
16ee
16ee
16eeJJ
=49
16ccLL
16cc
16cc
16ccJJ
16bLL
16b
16b
16bJJ
=50
16aLL
16a
16a
16aJJ
8bL
16aL
16aJJ
=51
8bL
16aL
16aJJ
8bL
16aL
16aJJ
=52
8BL
8ee
8B
8ccJ
=53
8BL
8cc
8B
8bJ
=54
8BL
8BJ
16bLL
16bJ
8bJ
=55
8BL
16bL
16bJJ
8b
8r
=56
8BL
8BJ
16bLL
16bJ
8bJ
=57
8BL
16bL
16bJJ
8bL
8bJ
=58
8r
8f
(8.fL
16aJk)
=59
16bLL
16b
16e
16aJJ
8b
8r
=60
8r
8f
8fL
16fL
16aJJ
=61
16bLL
16b
16e
16aJJ
8b
8r
=62
16bLL
16b
16e
16aJJ
16bLL
16b
16e
16aJJ
=63
16bLL
16b
16e
16aJJ
8b
8r
=64
4cc
4b
=65
4a
4b
=66
4cc
4b
=67
4g
4f#X
=68
8eL
8f#XJ
16gLL
16gJ
8f#J
=69
8gL
16gL
16gJJ
8f#X
8r
=70
8eL
8f#XJ
16gLL
16gJ
8f#J
=71
8gL
16gL
16gJJ
8f#XL
8gJ
=72
8eL
16eL
16eJJ
8e
8r
=73
8eL
16eL
16eJJ
8e
8r
=74
8eL
16eL
16eJJ
8eL
16eL
16eJJ
=75
8eL
16eL
16eJJ
8e
8r
==
*-
!!!ENC: Yukiko Yoden
!!!END: 2023/06/11
